Images/instagram.svg

<svg width="40" height="40" viewBox="0 0 40 40" fill="none" xmlns="http://www.w3.org/2000/svg">
<g clip-path="url(#clip0_596_145)">
<path d="M23.8281 20C23.8281 22.1143 22.1143 23.8281 20 23.8281C17.8857 23.8281 16.1719 22.1143 16.1719 20C16.1719 17.8857 17.8857 16.1719 20 16.1719C22.1143 16.1719 23.8281 17.8857 23.8281 20Z" fill="white"/>
<path d="M28.9526 13.2269C28.7686 12.7283 28.475 12.2769 28.0936 11.9064C27.7231 11.525 27.272 11.2314 26.7731 11.0474C26.3684 10.8902 25.7605 10.7031 24.6408 10.6522C23.4296 10.5969 23.0664 10.585 20 10.585C16.9333 10.585 16.5701 10.5966 15.3592 10.6519C14.2395 10.7031 13.6313 10.8902 13.2269 11.0474C12.728 11.2314 12.2766 11.525 11.9064 11.9064C11.525 12.2769 11.2314 12.728 11.0471 13.2269C10.8899 13.6316 10.7028 14.2398 10.6519 15.3595C10.5966 16.5704 10.5847 16.9336 10.5847 20.0003C10.5847 23.0667 10.5966 23.4299 10.6519 24.6411C10.7028 25.7608 10.8899 26.3687 11.0471 26.7734C11.2314 27.2723 11.5247 27.7234 11.9061 28.0939C12.2766 28.4753 12.7277 28.7689 13.2266 28.9529C13.6313 29.1104 14.2395 29.2975 15.3592 29.3484C16.5701 29.4037 16.933 29.4153 19.9997 29.4153C23.0667 29.4153 23.4299 29.4037 24.6405 29.3484C25.7602 29.2975 26.3684 29.1104 26.7731 28.9529C27.7747 28.5666 28.5663 27.775 28.9526 26.7734C29.1098 26.3687 29.2969 25.7608 29.3481 24.6411C29.4034 23.4299 29.415 23.0667 29.415 20.0003C29.415 16.9336 29.4034 16.5704 29.3481 15.3595C29.2972 14.2398 29.1101 13.6316 28.9526 13.2269ZM20 25.8972C16.7429 25.8972 14.1025 23.2571 14.1025 20C14.1025 16.7429 16.7429 14.1028 20 14.1028C23.2568 14.1028 25.8972 16.7429 25.8972 20C25.8972 23.2571 23.2568 25.8972 20 25.8972ZM26.1304 15.2478C25.3693 15.2478 24.7522 14.6307 24.7522 13.8696C24.7522 13.1085 25.3693 12.4915 26.1304 12.4915C26.8915 12.4915 27.5085 13.1085 27.5085 13.8696C27.5082 14.6307 26.8915 15.2478 26.1304 15.2478Z" fill="white" />
<path d="M20 0C8.95599 0 0 8.95599 0 20C0 31.044 8.95599 40 20 40C31.044 40 40 31.044 40 20C40 8.95599 31.044 0 20 0ZM31.4151 24.7348C31.3596 25.9573 31.1652 26.792 30.8813 27.5226C30.2847 29.0652 29.0652 30.2847 27.5226 30.8813C26.7923 31.1652 25.9573 31.3593 24.7351 31.4151C23.5104 31.4709 23.1192 31.4844 20.0003 31.4844C16.8811 31.4844 16.4902 31.4709 15.2652 31.4151C14.043 31.3593 13.208 31.1652 12.4777 30.8813C11.7111 30.593 11.0172 30.141 10.4434 29.5566C9.85931 28.9832 9.40735 28.2889 9.11896 27.5226C8.83514 26.7923 8.64075 25.9573 8.58521 24.7351C8.52875 23.5101 8.51562 23.1189 8.51562 20C8.51562 16.8811 8.52875 16.4899 8.5849 15.2652C8.64044 14.0427 8.83453 13.208 9.11835 12.4774C9.40674 11.7111 9.85901 11.0168 10.4434 10.4434C11.0168 9.85901 11.7111 9.40704 12.4774 9.11865C13.208 8.83484 14.0427 8.64075 15.2652 8.5849C16.4899 8.52905 16.8811 8.51562 20 8.51562C23.1189 8.51562 23.5101 8.52905 24.7348 8.58521C25.9573 8.64075 26.792 8.83484 27.5226 9.11835C28.2889 9.40674 28.9832 9.85901 29.5569 10.4434C30.141 11.0172 30.5933 11.7111 30.8813 12.4774C31.1655 13.208 31.3596 14.0427 31.4154 15.2652C31.4713 16.4899 31.4844 16.8811 31.4844 20C31.4844 23.1189 31.4713 23.5101 31.4151 24.7348Z" fill="white"/>
</g>
<defs>
<clipPath id="clip0_596_145">
<rect width="40" height="40" fill="white"/>
</clipPath>
</defs>
</svg>

<svg width="40" height="40" fill="none" xmlns="http://www.w3.org/2000/svg"><g clip-path="url(#a)" fill="#fff"><path d="M23.828 20a3.828 3.828 0 1 1-7.656 0 3.828 3.828 0 0 1 7.656 0Z"/><path d="M28.953 13.227a3.56 3.56 0 0 0-.86-1.32 3.557 3.557 0 0 0-1.32-.86c-.405-.157-1.012-.344-2.132-.395-1.211-.055-1.575-.067-4.641-.067-3.067 0-3.43.012-4.64.067-1.12.051-1.729.238-2.133.395-.499.184-.95.478-1.32.86-.382.37-.676.821-.86 1.32-.157.405-.344 1.013-.395 2.133-.055 1.21-.067 1.574-.067 4.64 0 3.067.012 3.43.067 4.641.05 1.12.238 1.728.395 2.132.184.5.478.95.86 1.32.37.382.82.676 1.32.86.404.157 1.012.345 2.132.395 1.211.056 1.574.067 4.64.067 3.068 0 3.43-.011 4.642-.067 1.12-.05 1.727-.238 2.132-.395a3.802 3.802 0 0 0 2.18-2.18c.157-.404.344-1.012.395-2.132.055-1.211.067-1.574.067-4.64 0-3.067-.012-3.43-.067-4.642-.05-1.12-.238-1.727-.395-2.132ZM20 25.897a5.897 5.897 0 1 1 0-11.794 5.897 5.897 0 0 1 0 11.794Zm6.13-10.65a1.378 1.378 0 1 1 0-2.756 1.378 1.378 0 0 1 0 2.757Z"/><path d="M20 0C8.956 0 0 8.956 0 20s8.956 20 20 20 20-8.956 20-20S31.044 0 20 0Zm11.415 24.735c-.055 1.222-.25 2.057-.534 2.788a5.872 5.872 0 0 1-3.358 3.358c-.73.284-1.566.478-2.788.534-1.225.056-1.616.07-4.735.07s-3.51-.014-4.735-.07c-1.222-.056-2.057-.25-2.787-.534a5.626 5.626 0 0 1-2.035-1.324 5.628 5.628 0 0 1-1.324-2.034c-.284-.73-.478-1.566-.534-2.788-.056-1.225-.07-1.616-.07-4.735s.014-3.51.07-4.735c.055-1.222.25-2.057.533-2.788.289-.766.741-1.46 1.325-2.034a5.625 5.625 0 0 1 2.034-1.324c.731-.284 1.566-.478 2.788-.534 1.225-.056 1.616-.07 4.735-.07s3.51.014 4.735.07c1.222.056 2.057.25 2.788.533a5.63 5.63 0 0 1 2.034 1.325 5.626 5.626 0 0 1 1.324 2.034c.285.731.479 1.566.534 2.788.056 1.225.07 1.616.07 4.735s-.014 3.51-.07 4.735Z"/></g><defs><clipPath id="a"><path fill="#fff" d="M0 0h40v40H0z"/></clipPath></defs></svg>
